X:1
T:Title
%%score { ( 1 3 4 ) | ( 2 5 ) }
L:1/8
Q:1/4=104
M:4/4
K:A
V:1 treble nm="Grand Piano"
V:3 treble 
V:4 treble 
V:2 bass 
V:5 bass 
V:1
 [CA]2 [CE]2 [CA]2 [CE]2 | [CA][B,G][CA][DB] [Ec]2 [EA]2 | B2 E2 B2 d2 | cBAB c4 | %4
w: W.~A.~Ogden * * *||||
 [CA]2 [CE]2 [CA]2 [CE]2 | [CA][B,G][CA][DB] [Ec]2 [EA]2 | B2 E2 B2 d2 | cBAG [CA]4 | [DF]4 [FA]4 | %9
w: |||||
 [CE]4 z4 | z4 B2[K:bass] z2 | [Ec][Ec][Ec][Ec] [Ec]4 | [DF]4 [FA]4 | [CE]4 z4 | BBBA A2 G2 | %15
w: ||||||
 [CA]6 z2 |] %16
w: |
V:2
 [A,,A,]2 [A,,A,]2 [A,,A,]2 [A,,A,]2 | [A,,A,][A,,A,][A,,A,][A,,A,] [A,,A,]2 [C,A,]2 | %2
 [E,G,E]2 [E,G,]2 [E,G,E]2 [E,B,E]2 | [E,A,E][E,G,E][E,F,E][E,G,E] [A,E]4 | %4
 [A,,A,]2 [A,,A,]2 [A,,A,]2 [A,,A,]2 | [A,,A,][A,,A,][A,,A,][A,,A,] [A,,A,]2 [C,A,]2 | %6
 [E,G,E]2 [E,G,]2 [E,G,E]2 [E,B,E]2 | [E,A,E][E,DE][E,CE][E,B,D] [A,,A,]4 | [D,A,]2 D,2 D,2 z D | %9
 A,,2 A,,2 A,,2 C,2 | [E,G,E][E,G,E][E,G,E][E,G,E] .[E,G,E]2 z2 | %11
 [A,,A,][A,,A,][A,,A,][A,,A,] [A,,A,]4 | [D,A,]2 D,2 D,2 z D | A,,2 A,,2 A,,2 C,2 | %14
 [E,G,D][E,G,D][E,G,D][E,A,C] [E,CE]2 [E,B,D]2 | [A,,A,]6 z2 |] %16
V:3
 x8 | x8 | x8 | x8 | x8 | x8 | x8 | x8 | z2 A,2 A,2 z F | A,2 A,2 [A,CA]2 A,2 | %10
 BBBB z[K:bass] D,C,B,, | x8 | z2 A,2 A,2 z F | A,2 A,2 [A,CA]2 A,2 | x8 | x8 |] %16
V:4
 x8 | x8 | x8 | x8 | x8 | x8 | x8 | x8 | z4 z2 A,2 | x8 | x5[K:bass] x3 | x8 | z4 z2 A,2 | x8 | %14
 x8 | x8 |] %16
V:5
 x8 | x8 | x8 | x8 | x8 | x8 | x8 | x8 | z4 z2 D,2 | x8 | x8 | x8 | z4 z2 D,2 | x8 | x8 | x8 |] %16

